!!!COM: Bach, Johann Sebastian
!!!CDT: 1685/02/21/-1750/07/28/
!!!OTL@@DE: Liebester Gott, wann werd ich sterben
!!!SCT: BWV 8/6
!!!PC#: 43
!!!AGN: chorale
**harm	**kern	**kern	**kern	**kern
*	*ICvox	*ICvox	*ICvox	*ICvox
*	*Ibass	*Itenor	*Ialto	*Isoprn
*	*I"Bass	*I"Tenor	*I"Alto	*I"Soprano
*>[A,A,B]	*>[A,A,B]	*>[A,A,B]	*>[A,A,B]	*>[A,A,B]
*>norep[A,B]	*>norep[A,B]	*>norep[A,B]	*>norep[A,B]	*>norep[A,B]
*>A	*>A	*>A	*>A	*>A
*	*	*oclefC4	*oclefC3	*oclefC1
*	*clefF4	*clefGv2	*clefG2	*clefG2
*k[f#c#g#d#]	*k[f#c#g#d#]	*k[f#c#g#d#]	*k[f#c#g#d#]	*k[f#c#g#d#]
*E:	*E:	*E:	*E:	*E:
*M4/4	*M4/4	*M4/4	*M4/4	*M4/4
*met(c)	*met(c)	*met(c)	*met(c)	*met(c)
*MM100	*MM100	*MM100	*MM100	*MM100
=1-	=1-	=1-	=1-	=1-
.	2.r	2.r	2.r	2.r
I	4E	4e	4g#	4b
=2	=2	=2	=2	=2
IV	4A	4e	4a	4cc#
I	4E	4e	4g#	4b
ii	4F#	4c#	4f#	4a
V65	4D#	4B	4f#	4a
=3	=3	=3	=3	=3
I	4E	4B	4e	4g#
V;	4BB;	4B;	4d#;	4f#;
.	2r	2r	2r	2r
=4	=4	=4	=4	=4
.	4r	4r	4r	4r
B:ii6	4E	4e	4g#	4cc#
V2	4E	4c#	4f#	4a#
I	4BB	4d#	4f#	4b
=5	=5	=5	=5	=5
V	2F#	2c#	2f#	2a#
I;	2BB;	2d#;	2f#;	2b;
=6:|!	=6:|!	=6:|!	=6:|!	=6:|!
*>B	*>B	*>B	*>B	*>B
.	2r	2r	2r	2r
c#:iv	4r	4r	4f#	4anX
i	4C#	4e	4e	4g#
=7	=7	=7	=7	=7
i6	4.E	4.c#	4.g#	4.cc#
iio6	8F#J	8f#J	8aJ	8dd#
V;	4GG#;	4d#;	4g#;	4b#;
V2	4F#	4d#	4g#	4b#
=	=8	=8	=8	=8
.	4E	4r	4r	4r
i6	4E	4e	4g#	4cc#
B:V2	4E	4c#	4f#	4a#
i6	4E	4d#	4f#	4b
=9	=9	=9	=9	=9
V	2F#	2c#	2f#	2a#
I;	4BB;	4d#;	4f#;	4b;
.	4r	4r	4r	4r
=10	=10	=10	=10	=10
.	4r	4r	4r	4b
I	8BBL	8d#L	8f#L	8anXL
V7/IV	8BBJ	8d#J	8f#J	8anXJ
IV	4E	4B	4e	4g#
ii	4C#	4c#	4e	4cc#
=11	=11	=11	=11	=11
c#:V	4GG#	4d#	4f#	4b#
viio7/V	4FF##	4e	4a#	4cc#
V	2GG#	2d#	2g#	2b#
=12	=12	=12	=12	=12
i	2C#	2e	2g#	2cc#
i	4r	4c#	4e	4r
A:V65	4G#	4d	4e	4bnX
=13	=13	=13	=13	=13
I	4A	4c#	4e	4cc#
E:vi	4c#	4c#	4e	4g#
I6	4G#	4B	4e	4b
V65	4D#	4B	4f#	4a
=14	=14	=14	=14	=14
I	4E	4B	4e	4g#
iv	4AA	4c	4e	4e
V2	4AA	4F#	4B	4d#
viio7/V	4AA#	4G	4c#X	4e
=15	=15	=15	=15	=15
V(54)	4BB	4F#	4B	4e
V	4BB	4F#	4B	4d#
I;	2E;	2G#X;	2B;	2e;
==	==	==	==	==
*-	*-	*-	*-	*-
!!!YOR1: 371 vierstimmige Choralges&auml;nge von Johann Sebastian Bach, 
!!!YOR2: 4th ed. by Alfred D&ouml;rffel (Leipzig: Breitkopf und H&auml;rtel, 
!!!YOR2: c.1875). 178 pp. Plate "V.A.10".  reprint: J.S. Bach, 371 Four-Part 
!!!YOR4: Chorales (New York: Associated Music Publishers, Inc., c.1940).
!!!SMS: B&H, 4th ed, Alfred D&ouml;rffel, c.1875, plate V.A.10
!!!EED:  Craig Stuart Sapp
!!!EEV:  2009/05/22
